X:1
T:Madurai, 12.10.12.10
T:Madurai, 12.10.12.10
T:George Mursell Garrett, 1872
T:Public Domain Courtesy of the Cyber Hymnal™
C:George Mursell Garrett, 1872
Z:Public Domain
Z:Courtesy of the Cyber Hymnal™
%%score ( 1 2 ) ( 3 4 )
L:1/8
Q:1/4=112
M:4/4
K:E
V:1 treble 
V:2 treble 
V:3 bass 
V:4 bass 
V:1
 [B,E]4 [EG]2 [EB]2 | [EB]2 [EA]2 [FA]4 | [EG]4 [EB]2 [EB]2 | [Ec]2 [EF]2 [DF]4 | %4
 [EG]4 [F^A]2 [FB]2 | [GB]2 [Ge]2 [Fd]2 [Gc]2 | [FB]4 (^A2 c2) | [DB]8 | [DB]4 [DB]2 [DG]2 | %9
 [CF]2 [CE]2 [CE]4 | [CA]4 [CA]2 [CF]2 | [B,E]2 [B,D]2 [B,D]4 | [B,E]4 [CF]2 [DF]2 | %13
 [EB]2 [EB]2 [Ee]2 [Fe]2 | [EG]4 (G2 F2) | E8 |] %16
V:2
 x8 | x8 | x8 | x8 | x8 | x8 | x4 E4 | x8 | x8 | x8 | x8 | x8 | x8 | x8 | x4 D4 | E8 |] %16
V:3
 [E,G,]4 [E,B,]2 [E,G,]2 | [C,C]2 [C,C]2 [D,B,]4 | [E,B,]4 [G,,B,]2 [G,,=D]2 | %3
 [A,,C]2 [A,,C]2 [B,,B,]4 | [E,B,]4 [E,C]2 [D,B,]2 | [E,B,]2 [C,B,]2 [D,B,]2 [E,E]2 | %6
 [F,D]4 (C2 ^A,2) | [B,,B,]8 | [G,,B,]4 [B,,G,]2 [B,,B,]2 | [C,A,]2 [C,G,]2 [C,G,]4 | %10
 [F,,A,]4 [A,,F,]2 [A,,A,]2 | [B,,G,]2 [B,,F,]2 [B,,F,]4 | G,4 [F,A,]2 [F,A,]2 | %13
 [E,G,]2 [E,G,]2 [C,A,]2 [A,,C]2 | [B,,B,]4 (B,2 A,2) | [E,G,]8 |] %16
V:4
 x8 | x8 | x8 | x8 | x8 | x8 | x4 F,4 | x8 | x8 | x8 | x8 | x8 | G,4 x4 | x8 | x4 B,,4 | x8 |] %16

